X: 130
T:Lady Nelson's Waltz. WM.130
M:3/8
L:1/16
Q:60
S:Wm.Mittell's MS,New Romney,Kent,1799
R:Waltz
O:England
A:Kent
N:See D.Roberts' book for full version.
D:
H:
Z:vmp.Chris Partington
W:
K:CDor
b2|f2d2B2|B2A2B2|c2A2F2|F4cd|edcBAB|cBAGFE|D2B2B2|B4:|]
